!!!COM:	la Rue, Pierre de
!!!CDT:	~1452///-1518/11/20
!!!OTL:	Ce n'est pas jeu
!!!AGN:	Song; Chanson
!!!SCT:	Rue3003
!!!SCA:	Rue3003
!!!voices:	4
**kern	**kern	**kern	**kern
*staff4	*staff3	*staff2	*staff1
*Ivox	*Ivox	*Ivox	*Ivox
*I"Bassus	*I"Tenor	*I"Contra	*I"Discantus
*I'B	*I'T	*I'C	*I'D
*clefF4	*clefF4	*clefGv2	*clefG2
*k[b-]	*k[b-]	*k[b-]	*k[b-]
*M2/1	*M2/1	*M2/1	*M2/1
*met(C|)	*met(C|)	*met(C|)	*met(C|)
=1-	=1-	=1-	=1-
0r	0r	1d	2.d/
.	.	.	4e/
.	.	2d\	4f/
.	.	.	4g/
.	.	2d\	[2a/
=2	=2	=2	=2
0r	0r	1.c	2a/]
.	.	.	4g/
.	.	.	4f/
.	.	.	2g/
.	.	4B-\	2a/
.	.	4A/	.
=3	=3	=3	=3
0r	1G	2.G/	0b-
.	.	4A/	.
.	2G\	4B-\	.
.	.	4c\	.
.	2G\	[2d\	.
=4	=4	=4	=4
0r	1.F	2d\]	0a
.	.	4c\	.
.	.	4B-\	.
.	.	2c\	.
.	4E-i\	2d\	.
.	4D\	.	.
=5	=5	=5	=5
1C	2.C/	0e-i	0r
.	4D\	.	.
2C/	4E-i\	.	.
.	4F\	.	.
2C/	[2G\	.	.
=6	=6	=6	=6
1.BB-	2G\]	0d	0r
.	4F\	.	.
.	4E\	.	.
.	2F\	.	.
4AA/	2G\	.	.
4GG/	.	.	.
=7	=7	=7	=7
0FF	0A	0r	1cc
.	.	.	2cc\
.	.	.	2cc\
=8	=8	=8	=8
2.GG/	1.G	1d	1.b-
4AA/	.	.	.
4BB-/	.	2d\	.
4C/	.	.	.
[2D\	4F\	[2d\	4a/
.	4E\	.	4g/
=9	=9	=9	=9
2D\]	1D	2d\]	1f
4C/	.	1e-i	.
4BB-/	.	.	.
2C/	2r	.	2r
2D\	2A\	[2d\	2f/
=10	=10	=10	=10
0E-i	2G\	2d\]	2g/
.	2F\	4c\	2a/
.	.	4B-\	.
.	2G\	2.d\	2.b-\
.	2A\	.	.
.	.	4c\	8a/L
.	.	.	8g/J
=11	=11	=11	=11
0D	2.B-\	0d	2f/
.	.	.	1g
.	8A\L	.	.
.	8G\J	.	.
.	1A	.	.
.	.	.	2f#i/
=12	=12	=12	=12
2r	0G	2r	[0g
2GG/	.	2d\	.
2GG/	.	2d\	.
2GG/	.	2d\	.
=13	=13	=13	=13
2C/	2r	2e-i\	0g]
2C/	2G\	2e-i\	.
1BB-	2G\	1d	.
.	2G\	.	.
=14	=14	=14	=14
1AA	2c\	2r	0r
.	2c\	2c\	.
2r	1B-	2d\	.
[2D\	.	[2f\	.
=15	=15	=15	=15
2D\]	1A	2f\]	0r
2C/	.	2e\	.
2D\	2r	2f\	.
2BB-/	[2d\	2F/	.
=16	=16	=16	=16
2GG/	2d\]	2G/	1r
2.C/	2c\	2A/	.
.	2d\	2r	2r
8BB-/L	.	.	.
8AA/J	.	.	.
2BB-/	2B-\	2D/	2d/
=17	=17	=17	=17
2C/	2G\	1E	2g/
2E\	1c	.	2g/
1D	.	1F	2f/
.	2Bni\	.	2f/
=18	=18	=18	=18
1.C	0c	1G	0e
.	.	2r	.
2AA/	.	[2A/	.
=19	=19	=19	=19
1BB-	0r	2A/]	1r
.	.	2G/	.
1AA	.	2A/	2r
.	.	2F/	[2a/
=20	=20	=20	=20
0r	1r	2D/	2a/]
.	.	2G/	2g/
.	2r	4F/	2a/
.	.	4E/	.
.	[2d\	2F/	2f/
=21	=21	=21	=21
0r	2d\]	2G/	2d/
.	2c\	2A/	2a/
.	2d\	2D/	2f/
.	2B-\	[2G/	[2g/
=22	=22	=22	=22
0GG	2G\	2G/]	2g/]
.	1c	2.G/	4f/
.	.	.	4e/
.	.	.	1d
.	.	4F/	.
.	2Bni\	2D/	.
=23	=23	=23	=23
0C	0c	2r	1r
.	.	1.G	.
.	.	.	1e
=24	=24	=24	=24
0AA	1c	1.A	1e
.	1c	.	1f
.	.	[2F/	.
=25	=25	=25	=25
0GG	1B-	2F/]	0g
.	.	4E/	.
.	.	4D/	.
.	1B-	1E	.
=26	=26	=26	=26
1FF	1A	0F	1a
2.FF/	2A\	.	2r
.	[2A\	.	2cc\
4GG/	.	.	.
=27	=27	=27	=27
2AA/	2A\]	0r	2cc\
2BB-/	4G\	.	1b-
.	4F\	.	.
1GG	2E\	.	.
.	2D\	.	2b-\
=28	=28	=28	=28
2.FF/	1F	2.c\	2.a/
4GG/	.	4B-\	4g/
2AA/	2E\	4A/	2e/
.	.	4G/	.
[2DD/	2D\	[2F/	[2f/
=29	=29	=29	=29
4DD/]	1A	2F/]	4f/]
4EE/	.	.	4g/
2FF/	.	2c\	2a/
2GG/	2G\	2B-\	2d/
2DD/	2F\	[2A/	[2a/
=30	=30	=30	=30
1FF	1A	2A/]	2a/]
.	.	1d	4g/
.	.	.	4f/
1EE	1G	.	1g
.	.	2c#i\	.
=31	=31	=31	=31
0DD;	0A;	0d;	0f;
=32	=32	=32	=32
0r	2r	1d	0r
.	2F\	.	.
.	2G\	2d\	.
.	[2B-\	2d\	.
=33	=33	=33	=33
1r	2B-\]	1c	1r
.	2A\	.	.
1D	1B-	2B-\	1f
.	.	4F/	.
.	.	4G/	.
=34	=34	=34	=34
2D\	0r	4A/	2f/
.	.	4F/	.
2D\	.	1B-	2f/
1C	.	.	1e
.	.	2A/	.
=35	=35	=35	=35
1.BB-	1B-	2B-\	1d
.	.	4A/	.
.	.	4G/	.
.	2B-\	1d	2r
4AA/	2B-\	.	[2g/
4GG/	.	.	.
=36	=36	=36	=36
1D	1A	1d	2g/]
.	.	.	2f/
2r	1G	2r	2g/
2GG/	.	2d\	2b-\
=37	=37	=37	=37
2GG/	0r	2d\	2b-\
2GG/	.	2.d\	2b-\
2FF/	.	.	2a/
.	.	4c\	.
2FF/	.	2A/	2a/
=38	=38	=38	=38
0GG	2r	2B-\	2.g/
.	2B-\	2.G/	.
.	.	.	4f/
.	2B-\	.	4e/
.	.	4F/	4d/
.	2B-\	2D/	[2g/
=39	=39	=39	=39
1DD	2A\	0d	2g/]
.	2A\	.	2f#i/
2r	2.G\	.	1g
2BB-/	.	.	.
.	4F\	.	.
=40	=40	=40	=40
2BB-/	4E\	0r	0r
.	4D\	.	.
2BB-/	1G	.	.
2AA/	.	.	.
2AA/	2F#i\	.	.
=41	=41	=41	=41
1GG	1G	1d	2.d/
.	.	.	4e/
1DD	1r	2d\	4f/
.	.	.	4g/
.	.	2d\	[2a/
=42	=42	=42	=42
0r	0r	1.c	2a/]
.	.	.	4g/
.	.	.	4f/
.	.	.	2g/
.	.	4B-\	2a/
.	.	4A/	.
=43	=43	=43	=43
0r	1G	2.G/	0b-
.	.	4A/	.
.	2G\	4B-\	.
.	.	4c\	.
.	2G\	[2d\	.
=44	=44	=44	=44
0r	1.F	2d\]	0a
.	.	4c\	.
.	.	4B-\	.
.	.	2c\	.
.	4E-i\	2d\	.
.	4D\	.	.
=45	=45	=45	=45
1C	2.C/	0e-i	0r
.	4D\	.	.
2C/	4E-i\	.	.
.	4F\	.	.
2C/	[2G\	.	.
=46	=46	=46	=46
1.BB-	2G\]	0d	0r
.	4F\	.	.
.	4E\	.	.
.	2F\	.	.
4AA/	2G\	.	.
4GG/	.	.	.
=47	=47	=47	=47
0FF	1A	0r	1cc
.	1A	.	2cc\
.	.	.	2cc\
=48	=48	=48	=48
2.GG/	1.G	1.d	1.b-
4AA/	.	.	.
4BB-/	.	.	.
4C/	.	.	.
[2D\	4F\	2d\	4a/
.	4E\	.	4g/
=49	=49	=49	=49
2D\]	1D	2d\	1f
4C/	.	1e-i	.
4BB-/	.	.	.
2C/	2r	.	2r
2D\	2A\	[2d\	2f/
=50	=50	=50	=50
0E-i	2G\	2d\]	2g/
.	2.c\	4c\	2a/
.	.	4B-\	.
.	.	2.d\	2b-\
.	4B-\	.	.
.	4A\	.	[2cc\
.	4G\	4c\	.
=51	=51	=51	=51
0D	2F\	0d	4cc\]
.	.	.	4b-\
.	2G\	.	4a/
.	.	.	4g/
.	1A	.	2f#i/
.	.	.	4g/
.	.	.	4f#i/
=52	=52	=52	=52
0GGl	0Gl	0dl	0gl
==	==	==	==
*-	*-	*-	*-
!!!RDF**kern: l=long note in original notation
!!!RDF**kern: i=editorial accidental
!!!ENC:	Chris Gage 06-17-2013
!!!END:	2013/08/06/
!!!EED:	Jesse Rodin
!!!EEV:	2013/08/06/
!!!ONB:	Translated from MusicXML and edited on 2013/08/06/ by Craig Sapp
!!muse2ps: C^@{COM}^i2I150v85,85,85,150Q16
